icon-themes/sifr_svg/cmd/sc_smallestheight.svg

<svg viewBox="0 0 16 16" xmlns="http://www.w3.org/2000/svg">/&amp;gt;<path d="m0 12h9v-8h-9zm2-2v-4h5v4zm8 4h1c.256892 0 .528462-.12983.71875-.3125l.28125-.371094v2.683594h2v-2.683594l.28125.371094c.190301.18267.494728.3125.71875.3125h1v-.412109-.587891c0-.30945-.0903-.55232-.28125-.75-.769594-1.016078-1.321099-1.524849-1.939453-2.25h-1.615235l-1.882812 2.25c-.19095.19768-.28125.44055-.28125.75v.587891zm0-11c0 .30945.0903.55232.28125.75l1.882812 2.25h1.615235c.618354-.725151 1.169859-1.233922 1.939453-2.25.19095-.19768.28125-.44055.28125-.75v-.587891-.412109h-1c-.224022 0-.528449.12983-.71875.3125l-.28125.371094v-2.683594h-2v2.683594l-.28125-.371094c-.190288-.18267-.461858-.3125-.71875-.3125h-1v.412109z" fill="#555753"/></svg>

<?xml version="1.0" encoding="UTF-8" standalone="no"?>
<svg
   xmlns:dc="http://purl.org/dc/elements/1.1/"
   xmlns:cc="http://creativecommons.org/ns#"
   xmlns:rdf="http://www.w3.org/1999/02/22-rdf-syntax-ns#"
   xmlns:svg="http://www.w3.org/2000/svg"
   xmlns="http://www.w3.org/2000/svg"
   xmlns:sodipodi="http://sodipodi.sourceforge.net/DTD/sodipodi-0.dtd"
   xmlns:inkscape="http://www.inkscape.org/namespaces/inkscape"
   viewBox="0 0 16 16"
   version="1.1"
   id="svg8"
   sodipodi:docname="sc_smallestheight.svg"
   inkscape:version="0.92.3 (2405546, 2018-03-11)"><metadata
   id="metadata14">
  <rdf:RDF>
    <cc:Work
       rdf:about="">
      <dc:format>image/svg+xml</dc:format>
      <dc:type
         rdf:resource="http://purl.org/dc/dcmitype/StillImage" />
    </cc:Work>
  </rdf:RDF>
</metadata>
<defs
   id="defs12" />
<sodipodi:namedview
   pagecolor="#ffffff"
   bordercolor="#666666"
   borderopacity="1"
   objecttolerance="10"
   gridtolerance="10"
   guidetolerance="10"
   inkscape:pageopacity="0"
   inkscape:pageshadow="2"
   inkscape:window-width="2560"
   inkscape:window-height="1378"
   id="namedview10"
   showgrid="false"
   inkscape:zoom="14.75"
   inkscape:cx="-4.9830508"
   inkscape:cy="8"
   inkscape:window-x="0"
   inkscape:window-y="36"
   inkscape:window-maximized="1"
   inkscape:current-layer="svg8" />


     /&gt;
 <path
   inkscape:connector-curvature="0"
   style="fill:#555753"
   d="M 0,12 H 9 V 4 H 0 Z M 2,10 V 6 h 5 v 4 z m 8,4 h 1 c 0.256892,0 0.528462,-0.12983 0.71875,-0.3125 L 12,13.316406 V 16 h 2 V 13.316406 L 14.28125,13.6875 C 14.471551,13.87017 14.775978,14 15,14 h 1 V 13.587891 13 C 16,12.69055 15.9097,12.44768 15.71875,12.25 14.949156,11.233922 14.397651,10.725151 13.779297,10 H 12.164062 L 10.28125,12.25 C 10.0903,12.44768 10,12.69055 10,13 v 0.587891 z M 10,3 c 0,0.30945 0.0903,0.55232 0.28125,0.75 L 12.164062,6 h 1.615235 C 14.397651,5.274849 14.949156,4.766078 15.71875,3.75 15.9097,3.55232 16,3.30945 16,3 V 2.412109 2 H 15 C 14.775978,2 14.471551,2.12983 14.28125,2.3125 L 14,2.683594 V 0 H 12 V 2.683594 L 11.71875,2.3125 C 11.528462,2.12983 11.256892,2 11,2 h -1 v 0.412109 z"
   id="path2-3" />
</svg>
